X: 1
T: Coilsfield House
C: Nathaniel Gow
R: strathspey
%Q: 128
M: 4/4
L: 1/16
K: G
|: GA |\
B2D2 G2B,2 G,6 AB | c2A2 B2G2 F2A2 D3c | cBAG GFED G4 E2C2 | B,2G2 A,2F2 G2G,2 G,2GA |
B2D2 G2B,2 G,6 AB | c2A2 B2G2 F2A2 D3c | cBAG GFED G4 E2C2 | B,2G2 A,2F2 G2G,2 G,2Bc ||
d2B2 d2B2 e4 A2Bc | d2G2 F2G2 AGFE D2Bc | d2B2 d2B2 c/d/e3 e/f/g3 | fgag fdef g4 G2ga |
b2g2 d2B2 c/d/e3 A2Bc | d2G2 F2G2 AGFE D2c2 | B2G2 D2B,2 C2DE A,2DC | B,2G2 A,2F2 G2G,2 G,2 :|
